icons/svg/phone-accept.svg

<svg width="24" height="24" viewBox="0 0 24 24" fill="none" xmlns="http://www.w3.org/2000/svg">
<path d="M8.13907 15.7326C10.2976 17.8911 12.4177 19.0136 14.0302 19.5973C15.7976 20.237 17.6361 19.4805 18.9652 18.1514L19.424 17.6926C20.0098 17.1068 20.0098 16.1571 19.424 15.5713L18.275 14.4222C17.6892 13.8364 16.7395 13.8364 16.1537 14.4222L15.767 14.8089C14.9859 15.59 13.7196 15.59 12.9386 14.8089L9.22624 11.0966C8.44519 10.3156 8.44519 9.04924 9.22624 8.26819L9.61294 7.88149C10.1987 7.29571 10.1987 6.34596 9.61294 5.76017L8.46389 4.61112C7.87811 4.02534 6.92836 4.02534 6.34257 4.61112L5.7705 5.18319C4.5086 6.44509 3.75788 8.17353 4.33294 9.86293C4.87053 11.4423 5.9546 13.5481 8.13907 15.7326Z" stroke="currentColor" stroke-width="1.5"/>
</svg>

<svg xmlns="http://www.w3.org/2000/svg" width="24" height="24" fill="none" viewBox="0 0 24 24"><path stroke="currentColor" stroke-width="1.5" d="M8.14 15.733c2.158 2.158 4.278 3.28 5.89 3.864 1.768.64 3.606-.117 4.935-1.446l.459-.458a1.5 1.5 0 0 0 0-2.122l-1.149-1.149a1.5 1.5 0 0 0-2.121 0l-.387.387a2 2 0 0 1-2.828 0l-3.713-3.712a2 2 0 0 1 0-2.829l.387-.387a1.5 1.5 0 0 0 0-2.12l-1.15-1.15a1.5 1.5 0 0 0-2.12 0l-.572.572c-1.262 1.262-2.013 2.99-1.438 4.68.538 1.58 1.622 3.685 3.806 5.87Z"/></svg>
